gama.ui.shared/icons_svg/dark/experiment/experiment.simulations.add.svg

<svg height="25" viewBox="-346.774 -3215.705 25 25" width="25" xmlns="http://www.w3.org/2000/svg"><g fill="none"><path d="m-326.11414-3215.205h-16.32c-2.12076 0-3.84 1.719-3.84 3.84v16.32c0 2.1207 1.71924 3.84 3.84 3.84h16.32c2.12078 0 3.84-1.7193 3.84-3.84v-16.32c0-2.121-1.71922-3.84-3.84-3.84z" fill="#666"/><path d="m-326.11414-3215.205h-16.32c-2.12076 0-3.84 1.719-3.84 3.84v16.32c0 2.1207 1.71924 3.84 3.84 3.84h16.32c2.12078 0 3.84-1.7193 3.84-3.84v-16.32c0-2.121-1.71922-3.84-3.84-3.84z" stroke="#fff" stroke-linecap="round" stroke-linejoin="round" stroke-width=".25"/><path d="m-346.27414-3215.205h24v24h-24z"/><path d="m-337.22983-3197.2075h-2.57141v2.5715h-.85713v-2.5715h-2.57143v-.8571h2.57143v-2.5714h.85713v2.5714h2.57141z" fill="#f9b841"/><path d="m-337.22983-3197.2075h-2.57141v2.5715h-.85713v-2.5715h-2.57143v-.8571h2.57143v-2.5714h.85713v2.5714h2.57141z" stroke="#cf7839" stroke-linecap="round" stroke-linejoin="round" stroke-width=".25"/><path d="m-334.12208-3205.323c-2.97425-.3585-4.59437-3.745-2.92692-6.2555 2.3855-3.5945 7.8262-1.5371 7.495 2.8395-.13036 1.7328-1.37094 2.6937-1.68004 4.2602-.72436 3.6681 3.86579 5.4302 5.91802 2.4233 1.39512-2.0448-.06834-4.9171-2.52428-5.0937-.31645-.0221-.87367.1419-.97144-.2692-.11039-.4636.40582-.492.72648-.4909 3.0552.0126 5.04646 3.3138 3.59876 6-2.0575 3.8195-7.924 2.2488-7.56443-2.2005.18819-2.3266 2.41703-3.5399 1.61593-6.122-.89155-2.8702-4.607-3.3369-6.08624-.7348-1.1691 2.0564.21344 4.6564 2.55897 4.8971-.16823-.3448-.51726-.6518-.69809-.9798-.22289-.4037.25652-.8474.64866-.4174.42686.4687.7738 1.0955 1.2143 1.5677.10936.1975.0568.4036-.06517.5823-.56667.3269-1.13123.9777-1.68635 1.2807-.31856.1733-.71912-.1116-.5488-.467.11775-.246.96932-.757.97775-.82z" fill="#c0e0ff"/></g></svg>

<?xml version="1.0" encoding="UTF-8" standalone="no"?>
<!DOCTYPE svg PUBLIC "-//W3C//DTD SVG 1.1//EN" "http://www.w3.org/Graphics/SVG/1.1/DTD/svg11.dtd">
<svg xmlns="http://www.w3.org/2000/svg" xmlns:xl="http://www.w3.org/1999/xlink" version="1.1" xmlns:dc="http://purl.org/dc/elements/1.1/" viewBox="-346.77414 -3215.705 25 25" width="25" height="25">
  <defs/>
  <g id="SOURCES" stroke-opacity="1" fill="none" stroke="none" fill-opacity="1" stroke-dasharray="none">
    <title>SOURCES</title>
    <g id="SOURCES_Dark">
      <title>Dark</title>
      <g id="Graphic_10899">
        <path d="M -326.11414 -3215.205 L -342.43414 -3215.205 C -344.5549 -3215.205 -346.27414 -3213.486 -346.27414 -3211.365 L -346.27414 -3195.045 C -346.27414 -3192.9243 -344.5549 -3191.205 -342.43414 -3191.205 L -326.11414 -3191.205 C -323.99336 -3191.205 -322.27414 -3192.9243 -322.27414 -3195.045 L -322.27414 -3211.365 C -322.27414 -3213.486 -323.99336 -3215.205 -326.11414 -3215.205 Z" fill="#666"/>
        <path d="M -326.11414 -3215.205 L -342.43414 -3215.205 C -344.5549 -3215.205 -346.27414 -3213.486 -346.27414 -3211.365 L -346.27414 -3195.045 C -346.27414 -3192.9243 -344.5549 -3191.205 -342.43414 -3191.205 L -326.11414 -3191.205 C -323.99336 -3191.205 -322.27414 -3192.9243 -322.27414 -3195.045 L -322.27414 -3211.365 C -322.27414 -3213.486 -323.99336 -3215.205 -326.11414 -3215.205 Z" stroke="white" stroke-linecap="round" stroke-linejoin="round" stroke-width=".25"/>
      </g>
      <g id="Graphic_10898">
        <rect x="-346.27414" y="-3215.205" width="24" height="24" stroke="gray" stroke-opacity="0" stroke-linecap="round" stroke-linejoin="round" stroke-width=".25"/>
      </g>
      <g id="Graphic_10896">
        <path d="M -337.22983 -3197.2075 L -339.80124 -3197.2075 L -339.80124 -3194.636 L -340.65837 -3194.636 L -340.65837 -3197.2075 L -343.2298 -3197.2075 L -343.2298 -3198.0646 L -340.65837 -3198.0646 L -340.65837 -3200.636 L -339.80124 -3200.636 L -339.80124 -3198.0646 L -337.22983 -3198.0646 L -337.22983 -3197.2075 Z" fill="#f9b841"/>
        <path d="M -337.22983 -3197.2075 L -339.80124 -3197.2075 L -339.80124 -3194.636 L -340.65837 -3194.636 L -340.65837 -3197.2075 L -343.2298 -3197.2075 L -343.2298 -3198.0646 L -340.65837 -3198.0646 L -340.65837 -3200.636 L -339.80124 -3200.636 L -339.80124 -3198.0646 L -337.22983 -3198.0646 L -337.22983 -3197.2075 Z" stroke="#cf7839" stroke-linecap="round" stroke-linejoin="round" stroke-width=".25"/>
      </g>
      <g id="Graphic_10895">
        <path d="M -334.12208 -3205.323 C -337.09633 -3205.6815 -338.71645 -3209.068 -337.049 -3211.5785 C -334.6635 -3215.173 -329.2228 -3213.1156 -329.554 -3208.739 C -329.68436 -3207.0062 -330.92494 -3206.0453 -331.23404 -3204.4788 C -331.9584 -3200.8107 -327.36825 -3199.0486 -325.31602 -3202.0555 C -323.9209 -3204.1003 -325.38436 -3206.9726 -327.8403 -3207.1492 C -328.15675 -3207.1713 -328.71397 -3207.0073 -328.81174 -3207.4184 C -328.92213 -3207.882 -328.40592 -3207.9104 -328.08526 -3207.9093 C -325.03006 -3207.8967 -323.0388 -3204.5955 -324.4865 -3201.9093 C -326.544 -3198.0898 -332.4105 -3199.6605 -332.05093 -3204.1098 C -331.86274 -3206.4364 -329.6339 -3207.6497 -330.435 -3210.2318 C -331.32655 -3213.102 -335.042 -3213.5687 -336.52124 -3210.9666 C -337.69034 -3208.9102 -336.3078 -3206.3102 -333.96227 -3206.0695 C -334.1305 -3206.4143 -334.47953 -3206.7213 -334.66036 -3207.0493 C -334.88325 -3207.453 -334.40384 -3207.8967 -334.0117 -3207.4667 C -333.58484 -3206.998 -333.2379 -3206.3712 -332.7974 -3205.899 C -332.68804 -3205.7015 -332.7406 -3205.4954 -332.86257 -3205.3167 C -333.42924 -3204.9898 -333.9938 -3204.339 -334.54892 -3204.036 C -334.86748 -3203.8627 -335.26804 -3204.1476 -335.09772 -3204.503 C -334.97997 -3204.749 -334.1284 -3205.26 -334.11997 -3205.323 Z" fill="#c0e0ff"/>
      </g>
    </g>
  </g>
</svg>
